X:181
T: WAS WOLLEN DIE HAUSAREN ESSEN
N: E1325
O: Europa, Mitteleuropa, Deutschland; Frankreich, Elsass
R: Staende -, Soldaten -, Kriegs - Lied
M: 2/4
L: 1/16
K: G
D2 | G2G2G2G2 | G4F2G2 | A4F4 | z4
F2G2 | A4A2A2 | A4G2A2 | B4G4 | z4
d3d | d4B3B | B4e3d | d4c4 | c4
A2B2 | c3cc2c2 | c2e2d2c2 | B3BB2B2 | B4
B3c | d8 | e4c3c | c4d4 | B4z2

@@@ Tune index: 4865
